X:56
T: Earth God's Lyric & Wind God's Aria
R: slip jig
L: 1/8
M: 9/8
K: Dmaj
T: Earth God's Lyric
A2A | "D" A2d f2e d2c | "G" d2B G2c AdB | "A" c2A G2d B2c | "D" d2e fde A2A |
      "D" A2d f2e d2c | "G" d2B G2c AdB | "A" c2d e2f "A" gec | "D" d3 d3 :|
T: Wind God's Aria
M: 6/8
|: "A" a2a gfe | "G" f2d cde | "A" add "G" gdd | "D" f2f gab |
"G" bge "A" a2a | gfd "D" efe | "A" e2e "D" dcd | "A" e2e aec |
"G" gdd "D" f2f | "A" ece "D" dBd | "G" gab "D" fdf |1 "A" e3 dfd :|
|2 "A" e3 e2a | A2A |]

